assets/svg/123-K.svg

<?xml version="1.0" encoding="utf-8"?>
<svg xmlns="http://www.w3.org/2000/svg" version="1.1" x="0px" y="0px" xml:space="preserve" width="72.667" height="72.666" viewBox="2.146 -74.404 72.667 72.666">
	<g>
		<rect x="2.146" y="-74.404" style="fill:none;" width="72.667" height="72.666"/>
		<path style="fill:none;stroke:#000000;stroke-width:0.4;" d="M7.425-73.613c1.442-0.481,1.5,2.25,0.25,2.75    S6.3-73.238,7.425-73.613z"/>
		<path style="fill:none;stroke:#000000;stroke-width:0.4;" d="M12.675-73.113c0.573-1.031,3.125,0.375,1.75,1.625    S12.05-71.988,12.675-73.113z"/>
		<path style="fill:none;stroke:#000000;stroke-width:0.4;" d="M19.925-70.738c0.956,1.529,1.375,3.375-0.875,2.5    S19.3-71.738,19.925-70.738z"/>
		<path style="fill:none;stroke:#000000;stroke-width:0.4;" d="M24.925-72.113c-1.108,0.317-1.25,3,1.125,3    S25.8-72.363,24.925-72.113z"/>
		<path style="fill:none;stroke:#000000;stroke-width:0.4;" d="M32.8-73.988c0.805-0.644,2.25,1.75,0.375,2.375    S32.175-73.488,32.8-73.988z"/>
		<path style="fill:none;stroke:#000000;stroke-width:0.4;" d="M42.925-73.738c-2.214,0.316-1.125,2.5,0.5,2.25    S44.675-73.988,42.925-73.738z"/>
		<path style="fill:none;stroke:#000000;stroke-width:0.4;" d="M4.175-66.488c0.462-1.056,2.375,0,1.75,1.25    C5.3-63.987,3.3-64.488,4.175-66.488z"/>
		<path style="fill:none;stroke:#000000;stroke-width:0.4;" d="M8.925-59.987c-1.303,1.195,0.25,3.375,1.5,2.25    S10.425-61.362,8.925-59.987z"/>
		<path style="fill:none;stroke:#000000;stroke-width:0.4;" d="M2.675-44.487c0.422-1.856,2.625,0.75,1.75,2    S2.05-41.737,2.675-44.487z"/>
		<path style="fill:none;stroke:#000000;stroke-width:0.4;" d="M8.175-52.487c1.064-1.064,2.625,0.25,1.125,2    S7.55-51.862,8.175-52.487z"/>
		<path style="fill:none;stroke:#000000;stroke-width:0.4;" d="M51.05-72.863c1.662-0.831,1.875,1.75,0.625,2.5    S50.05-72.363,51.05-72.863z"/>
		<path style="fill:none;stroke:#000000;stroke-width:0.4;" d="M59.05-71.988c1.348-0.27,2.375,1.875,0.625,2.5    S57.8-71.738,59.05-71.988z"/>
		<path style="fill:none;stroke:#000000;stroke-width:0.4;" d="M2.925-38.487c0.454-1.059,1.375-1,1.625,0.875    S1.8-35.862,2.925-38.487z"/>
		<path style="fill:none;stroke:#000000;stroke-width:0.4;" d="M3.55-30.987c0.334-1.556,2.5-1.375,2.375,0.375    S3.175-29.237,3.55-30.987z"/>
		<path style="fill:none;stroke:#000000;stroke-width:0.4;" d="M5.55-23.362c1.659-1.541,2.75,1.875,1.25,2.25    S3.8-21.737,5.55-23.362z"/>
		<path style="fill:none;stroke:#000000;stroke-width:0.4;" d="M5.55-16.487c1.192-1.49,2.375,0.875,1.25,1.875    S4.55-15.238,5.55-16.487z"/>
		<path style="fill:none;stroke:#000000;stroke-width:0.4;" d="M12.816-22.743c1.285-2.013,1.93,0.295,1.822,2.06    C14.531-18.92,11.347-20.442,12.816-22.743z"/>
		<path style="fill:none;stroke:#000000;stroke-width:0.4;" d="M71.466-73.296c0.738-2.215,2.375,1.25,0.875,2.625    S70.966-71.796,71.466-73.296z"/>
		<path style="fill:none;stroke:#000000;stroke-width:0.4;" d="M68.863-65.863c1.459-0.104,1.875,2,0.5,2.625    S67.113-65.738,68.863-65.863z"/>
		<path style="fill:none;stroke:#000000;stroke-width:0.4;" d="M72.216-59.737c-1.262,1.104,0.125,3.375,1.25,2.125    S73.216-60.612,72.216-59.737z"/>
		<path style="fill:none;stroke:#000000;stroke-width:0.4;" d="M72.591-53.737c1.227-1.073,2.125,2.5,0.75,2.875    S71.591-52.862,72.591-53.737z"/>
		<path style="fill:none;stroke:#000000;stroke-width:0.4;" d="M69.966-47.362c1.791-0.21,1.375,2.875,0.125,3.125    S67.841-47.112,69.966-47.362z"/>
		<path style="fill:none;stroke:#000000;stroke-width:0.4;" d="M70.091-39.362c1.486,0.496,1.125,3.75-0.5,2.625    S69.341-39.612,70.091-39.362z"/>
		<path style="fill:none;stroke:#000000;stroke-width:0.4;" d="M68.966-32.487c1.46,0.973-3.125,3.875-2.375,1.25    S68.216-32.987,68.966-32.487z"/>
		<path style="fill:none;stroke:#000000;stroke-width:0.4;" d="M72.341-27.237c-1.332,0.888-1,4.375,0.5,3    S73.466-27.987,72.341-27.237z"/>
		<path style="fill:none;stroke:#000000;stroke-width:0.4;" d="M70.591-19.737c1.714,0.514,2.25,2.875,0.375,2.875    S69.341-20.112,70.591-19.737z"/>
		<path style="fill:none;stroke:#000000;stroke-width:0.4;" d="M72.216-12.238c1.5-0.75,1.75,2.375,0.375,3    S70.466-11.363,72.216-12.238z"/>
		<path style="fill:none;stroke:#000000;stroke-width:0.4;" d="M15.55-65.488c1.593,0.956,1.75,3.875,0,3.25    S14.925-65.863,15.55-65.488z"/>
		<path style="fill:none;stroke:#000000;stroke-width:0.4;" d="M30.675-65.863c1.179-0.131,1.625,2.875,0.25,2.875    S29.55-65.738,30.675-65.863z"/>
		<path style="fill:none;stroke:#000000;stroke-width:0.4;" d="M36.8-68.613c1.912,0,2.125,3,0.375,2.875S35.3-68.613,36.8-68.613z"/>
		<path style="fill:none;stroke:#000000;stroke-width:0.4;" d="M46.175-68.113c1.989,0.498,0.375,3.625-0.875,2.75    S44.675-68.488,46.175-68.113z"/>
		<path style="fill:none;stroke:#000000;stroke-width:0.4;" d="M55.55-66.738c1.586,0.353,1.25,2.75-0.125,2.75    S54.425-66.988,55.55-66.738z"/>
		<path style="fill:none;stroke:#000000;stroke-width:0.4;" d="M62.987-62.987c2.021,0.735,1.625,4.375-0.625,3.75    C60.112-59.862,61.612-63.487,62.987-62.987z"/>
		<path style="fill:none;stroke:#000000;stroke-width:0.4;" d="M66.425-55.737c1.003-0.1,1.25,2.5,0,3S65.175-55.612,66.425-55.737z    "/>
		<path style="fill:none;stroke:#000000;stroke-width:0.4;" d="M50.3-61.987c1.125-0.375,2,2,0.375,2.625S48.8-61.487,50.3-61.987z"/>
		<path style="fill:none;stroke:#000000;stroke-width:0.4;" d="M10.675-8.175c1.198-0.719,2.75,1.875,1.625,2.75    S9.425-7.425,10.675-8.175z"/>
		<path style="fill:none;stroke:#000000;stroke-width:0.4;" d="M3.55-7.05c1.009-2.692,2.5,2.375,1,2.875S2.8-5.05,3.55-7.05z"/>
		<path style="fill:none;stroke:#000000;stroke-width:0.4;" d="M19.675-5.675C20.234-6.793,22.55-2.8,21.3-2.3    S18.925-4.175,19.675-5.675z"/>
		<path style="fill:none;stroke:#000000;stroke-width:0.4;" d="M31.425-8.175c1.114-0.159,1.75,2.875,0,3S30.55-8.05,31.425-8.175z"/>
		<path style="fill:none;stroke:#000000;stroke-width:0.4;" d="M50.925-7.55c1.279-1.476,1.875,2.875,0.625,3.375    S49.3-5.675,50.925-7.55z"/>
		<path style="fill:none;stroke:#000000;stroke-width:0.4;" d="M59.05-6.55c-1.085,0.62-1.625,3.5,0.5,2.75S59.925-7.05,59.05-6.55z    "/>
		<path style="fill:none;stroke:#000000;stroke-width:0.4;" d="M65.425-5.05c0.57-1.14,2.125,0.375,1.75,1.75    S64.175-2.55,65.425-5.05z"/>
		<path style="fill:none;stroke:#000000;stroke-width:0.4;" d="M39.175-6.8c1.287,0.483,2.625-2.875,1-3.5S38.175-7.175,39.175-6.8z    "/>
		<path style="fill:none;stroke:#000000;stroke-width:0.4;" d="M45.175-9.05c1.076-0.414,2.25,2.75,0.875,3S43.55-8.425,45.175-9.05    z"/>
		<path style="fill:none;stroke:#000000;stroke-width:0.4;" d="M25.175-10.675c1.469-0.326,2.25,4,0.5,4.125    S24.05-10.425,25.175-10.675z"/>
		<path style="fill:none;stroke:#000000;stroke-width:0.4;" d="M39.3-24.987c0.838-0.252,1.75,1.375,1.25,2.5s-0.5,1.25-1.125,1.5    S38.05-24.612,39.3-24.987z"/>
		<path style="fill:none;stroke:#000000;stroke-width:0.4;" d="M45.175-16.612c1,1,1.5,3.25-0.5,2.375S45.175-16.612,45.175-16.612z    "/>
		<path style="fill:none;stroke:#000000;stroke-width:0.4;" d="M34.8-16.237c0.585-0.961,2,1.125,1.5,1.875    S33.05-13.363,34.8-16.237z"/>
		<path style="fill:none;stroke:#000000;stroke-width:0.4;" d="M28.55-18.612c1.481,0.906,0.5,2.5-1.25,2.125    S26.3-19.987,28.55-18.612z"/>
		<path style="fill:none;stroke:#000000;stroke-width:0.4;" d="M19.8-15.613c1.475-0.369,1.75,1.75,0.5,2.375    S18.8-15.363,19.8-15.613z"/>
		<path style="fill:none;stroke:#000000;stroke-width:0.4;" d="M13.425-14.363c1.269-0.211,1.125,3.5-0.625,2.625    S12.675-14.238,13.425-14.363z"/>
		<path style="fill:none;stroke:#000000;stroke-width:0.4;" d="M19.55-23.362c0.538-0.922,2-0.125,1.125,1.375    S18.675-21.862,19.55-23.362z"/>
		<path style="fill:none;stroke:#000000;stroke-width:0.4;" d="M30.8-39.112c0.538-0.922,2-0.125,1.125,1.375    S29.925-37.612,30.8-39.112z"/>
		<path style="fill:none;stroke:#000000;stroke-width:0.4;" d="M64.55-70.113c0.538-0.922,2-0.125,1.125,1.375    S63.675-68.613,64.55-70.113z"/>
		<path style="fill:none;stroke:#000000;stroke-width:0.4;" d="M25.925-26.237c1.352,0,0.75,3.5-0.5,3.25S25.3-26.237,25.925-26.237    z"/>
		<path style="fill:none;stroke:#000000;stroke-width:0.4;" d="M64.55-14.738c2.062-0.515,2.25,3.125,0.625,3.875    C63.55-10.113,63.55-14.488,64.55-14.738z"/>
		<path style="fill:none;stroke:#000000;stroke-width:0.4;" d="M57.05-19.425c1.353-0.557,2.75,1,1.375,2.375    S54.925-18.55,57.05-19.425z"/>
		<path style="fill:none;stroke:#000000;stroke-width:0.4;" d="M50.8-22.112c1.583,0.235,0.875,2.875-0.25,3.375    S47.425-22.612,50.8-22.112z"/>
		<path style="fill:none;stroke:#000000;stroke-width:0.4;" d="M65.55-23.112c0.92-1.022,2.375,2.875,0.875,3.125    S64.425-21.862,65.55-23.112z"/>
		<path style="fill:none;stroke:#000000;stroke-width:0.4;" d="M60.675-27.862c1.284-0.405,1.5,2.125,0.625,3.25    S58.3-27.112,60.675-27.862z"/>
		<path style="fill:none;stroke:#000000;stroke-width:0.4;" d="M52.675-28.862c2.352,1.045,0.25,3.875-1.25,2.875    S51.55-29.362,52.675-28.862z"/>
		<path style="fill:none;stroke:#000000;stroke-width:0.4;" d="M58.425-34.987c1.667,0,1.25,2.375-0.125,3.125    S57.3-34.987,58.425-34.987z"/>
		<path style="fill:none;stroke:#000000;stroke-width:0.4;" d="M63.05-43.612c1.707,0.996,0.375,3.625-1.25,3.5    S61.55-44.487,63.05-43.612z"/>
		<path style="fill:none;stroke:#000000;stroke-width:0.4;" d="M44.925-27.487c0.875-1.75,1.875-0.75,2.125,1.25    S43.675-24.987,44.925-27.487z"/>
		<path style="fill:none;stroke:#000000;stroke-width:0.4;" d="M49.05-37.237c1.554-0.888,2.75,2.375,1.25,2.875    S47.3-36.237,49.05-37.237z"/>
		<path style="fill:none;stroke:#000000;stroke-width:0.4;" d="M42.175-37.237c1.936,0.258,1.5,2.125,0.25,2.5    S40.3-37.487,42.175-37.237z"/>
		<path style="fill:none;stroke:#000000;stroke-width:0.4;" d="M54.425-43.987c1.539-0.577,2.25,2.75,0.75,3    S53.425-43.612,54.425-43.987z"/>
		<path style="fill:none;stroke:#000000;stroke-width:0.4;" d="M32.55-26.237c1.364-0.728,2.375,2.625,1.125,3.25    S30.675-25.237,32.55-26.237z"/>
		<path style="fill:none;stroke:#000000;stroke-width:0.4;" d="M37.3-33.612c1.543-0.386,1.5,2.5,0.375,3S34.8-32.987,37.3-33.612z"/>
		<path style="fill:none;stroke:#000000;stroke-width:0.4;" d="M11.175-31.737c0.943-1.415,3.125,0.375,2.125,1.625    S9.925-29.862,11.175-31.737z"/>
		<path style="fill:none;stroke:#000000;stroke-width:0.4;" d="M17.425-30.237c1.14-0.57,2,1.875,0.75,2.5    S16.425-29.737,17.425-30.237z"/>
		<path style="fill:none;stroke:#000000;stroke-width:0.4;" d="M55.425-12.863c1.14-0.57,2,1.875,0.75,2.5    S54.425-12.363,55.425-12.863z"/>
		<path style="fill:none;stroke:#000000;stroke-width:0.4;" d="M27.55-34.237c1.235-0.617,2,2.625,0.875,3.375    S25.3-33.112,27.55-34.237z"/>
		<path style="fill:none;stroke:#000000;stroke-width:0.4;" d="M9.675-38.737c1.008-1.008,1.75,1,0.75,2.375    S7.925-36.987,9.675-38.737z"/>
		<path style="fill:none;stroke:#000000;stroke-width:0.4;" d="M18.175-38.612c0.57-0.97,1.625,1.625,0.75,2.375    S16.925-36.487,18.175-38.612z"/>
		<path style="fill:none;stroke:#000000;stroke-width:0.4;" d="M36.425-43.237c0.524-0.655,1.5,2.125,0.375,2.75    S35.425-41.987,36.425-43.237z"/>
		<path style="fill:none;stroke:#000000;stroke-width:0.4;" d="M46.05-43.737c0.984-0.179,2,2.375,0.5,2.75    S44.675-43.487,46.05-43.737z"/>
		<path style="fill:none;stroke:#000000;stroke-width:0.4;" d="M61.55-50.362c1.889-0.236,1.875,3,0.375,3.25    S60.55-50.237,61.55-50.362z"/>
		<path style="fill:none;stroke:#000000;stroke-width:0.4;" d="M57.675-57.362c1.274,0.182,1.5,3.25-0.25,3.125    S56.8-57.487,57.675-57.362z"/>
		<path style="fill:none;stroke:#000000;stroke-width:0.4;" d="M51.425-49.987c0.988-0.988,2,1.625,0.75,2.375    S50.55-49.112,51.425-49.987z"/>
		<path style="fill:none;stroke:#000000;stroke-width:0.4;" d="M30.05-46.612c0.737-0.676,1.625,1.375,0.625,2.5    S28.55-45.237,30.05-46.612z"/>
		<path style="fill:none;stroke:#000000;stroke-width:0.4;" d="M23.925-43.362c1.471-0.98,1.875,2.25,1,2.875    S22.425-42.362,23.925-43.362z"/>
		<path style="fill:none;stroke:#000000;stroke-width:0.4;" d="M18.3-47.487c1.166,0.179,1.5,2,0.25,2.75S16.675-47.737,18.3-47.487    z"/>
		<path style="fill:none;stroke:#000000;stroke-width:0.4;" d="M11.55-46.237c1.026-0.724,2,2.75,0.75,3.5    S9.425-44.737,11.55-46.237z"/>
		<path style="fill:none;stroke:#000000;stroke-width:0.4;" d="M44.675-49.862c0.758-0.664,2.375,1.625,0.625,2.25    S43.675-48.987,44.675-49.862z"/>
		<path style="fill:none;stroke:#000000;stroke-width:0.4;" d="M46.3-57.362c0.98-0.196,1.75,2,0.25,2.375S45.05-57.112,46.3-57.362    z"/>
		<path style="fill:none;stroke:#000000;stroke-width:0.4;" d="M42.3-62.737c1.465-1.326,1,3,0.5,2.875S39.675-60.362,42.3-62.737z"/>
		<path style="fill:none;stroke:#000000;stroke-width:0.4;" d="M36.425-60.237c0.857-0.214,1.25,2.125,0.25,2.75    S35.425-59.987,36.425-60.237z"/>
		<path style="fill:none;stroke:#000000;stroke-width:0.4;" d="M39.675-52.112c1.612-0.322,1.5,1.75,0.375,2.5    S38.425-51.862,39.675-52.112z"/>
		<path style="fill:none;stroke:#000000;stroke-width:0.4;" d="M33.675-53.362c1.208-0.322,1.5,1.375,0.375,2.25    S31.8-52.862,33.675-53.362z"/>
		<path style="fill:none;stroke:#000000;stroke-width:0.4;" d="M16.675-57.237c1.115,0.075,1.125,3.125-0.25,3.25    S14.8-57.362,16.675-57.237z"/>
		<path style="fill:none;stroke:#000000;stroke-width:0.4;" d="M22.8-53.362c1.664-0.555,1.5,2.5,0.25,2.875    S22.05-53.112,22.8-53.362z"/>
		<path style="fill:none;stroke:#000000;stroke-width:0.4;" d="M29.55-58.612c1.278,0.15,1.25,3.25-0.25,3.5    S27.425-58.862,29.55-58.612z"/>
		<path style="fill:none;stroke:#000000;stroke-width:0.4;" d="M22.8-62.737c0.983-0.772,1.875,2.25,0.625,3.125    S21.05-61.362,22.8-62.737z"/>
	</g>
</svg>

<svg xmlns="http://www.w3.org/2000/svg" xml:space="preserve" width="72.67" height="72.67" viewBox="2.15 -74.4 72.67 72.67"><path d="M2.15-74.4h72.67v72.67H2.15z" style="fill:none"/><path d="M7.42-73.61c1.45-.48 1.5 2.25.25 2.75s-1.37-2.38-.25-2.75zM12.68-73.11c.57-1.03 3.12.37 1.75 1.62s-2.38-.5-1.75-1.62zM19.93-70.74c.95 1.53 1.37 3.38-.88 2.5s.25-3.5.88-2.5zM24.93-72.11c-1.11.31-1.25 3 1.12 3s-.25-3.25-1.13-3zM32.8-73.99c.8-.64 2.25 1.75.38 2.38s-1-1.88-.38-2.38zM42.92-73.74c-2.2.32-1.12 2.5.5 2.25s1.25-2.5-.5-2.25zM4.17-66.49c.47-1.05 2.38 0 1.75 1.25-.62 1.25-2.62.75-1.75-1.25zM8.93-59.99c-1.3 1.2.25 3.38 1.5 2.25s0-3.62-1.5-2.25zM2.67-44.49c.43-1.85 2.63.75 1.75 2s-2.37.75-1.75-2zM8.18-52.49c1.06-1.06 2.62.25 1.12 2s-1.75-1.37-1.13-2zM51.05-72.86c1.66-.83 1.88 1.75.63 2.5s-1.63-2-.63-2.5zM59.05-71.99c1.35-.27 2.38 1.88.63 2.5s-1.88-2.25-.63-2.5zM2.92-38.49c.46-1.06 1.38-1 1.63.88s-2.75 1.75-1.63-.88zM3.55-30.99c.33-1.55 2.5-1.37 2.38.38S3.17-29.24 3.54-31zM5.55-23.36C7.21-24.9 8.3-21.5 6.8-21.11s-3-.63-1.25-2.25zM5.55-16.49c1.2-1.49 2.38.88 1.25 1.88s-2.25-.63-1.25-1.88zM12.82-22.74c1.28-2.02 1.93.3 1.82 2.06-.1 1.76-3.3.24-1.82-2.06zM71.47-73.3c.73-2.21 2.37 1.25.87 2.63s-1.37-1.13-.87-2.63zM68.86-65.86c1.46-.1 1.88 2 .5 2.62s-2.25-2.5-.5-2.62zM72.22-59.74c-1.27 1.1.12 3.38 1.25 2.13s-.25-3-1.25-2.13zM72.6-53.74c1.22-1.07 2.12 2.5.74 2.88s-1.75-2-.75-2.88zM69.97-47.36c1.79-.21 1.37 2.87.12 3.12s-2.25-2.87-.12-3.12zM70.1-39.36c1.48.5 1.12 3.75-.5 2.62s-.26-2.87.5-2.62zM68.97-32.49c1.46.98-3.13 3.88-2.38 1.25s1.63-1.75 2.38-1.25zM72.34-27.24c-1.33.9-1 4.38.5 3s.63-3.75-.5-3zM70.6-19.74c1.7.52 2.24 2.88.37 2.88s-1.63-3.25-.38-2.88zM72.22-12.24c1.5-.75 1.75 2.38.37 3s-2.12-2.12-.37-3zM15.55-65.49c1.6.96 1.75 3.88 0 3.25s-.63-3.62 0-3.25zM30.68-65.86C31.84-66 32.3-63 30.93-63s-1.38-2.75-.25-2.87zM36.8-68.61c1.91 0 2.13 3 .38 2.87s-1.88-2.87-.38-2.87zM46.17-68.11c2 .5.38 3.62-.87 2.75s-.63-3.13.88-2.75zM55.55-66.74c1.59.35 1.25 2.75-.13 2.75s-1-3 .13-2.75zM62.99-62.99c2.02.74 1.62 4.38-.63 3.75-2.25-.62-.75-4.25.63-3.75zM66.42-55.74c1-.1 1.25 2.5 0 3s-1.25-2.87 0-3zM50.3-61.99c1.13-.37 2 2 .38 2.63S48.8-61.5 50.3-62zM10.68-8.18c1.2-.71 2.75 1.88 1.62 2.75s-2.88-2-1.63-2.75zM3.55-7.05c1-2.7 2.5 2.38 1 2.88s-1.75-.88-1-2.88zM19.68-5.67c.55-1.12 2.87 2.87 1.62 3.37s-2.38-1.88-1.63-3.38zM31.43-8.18c1.1-.15 1.75 2.88 0 3s-.88-2.87 0-3zM50.92-7.55c1.28-1.48 1.88 2.88.63 3.38s-2.25-1.5-.63-3.38zM59.05-6.55c-1.08.62-1.63 3.5.5 2.75s.38-3.25-.5-2.75zM65.42-5.05c.57-1.14 2.13.38 1.75 1.75s-3 .75-1.75-1.75zM39.17-6.8c1.3.48 2.63-2.88 1-3.5s-2 3.13-1 3.5zM45.17-9.05c1.08-.41 2.25 2.75.88 3s-2.5-2.38-.88-3zM25.18-10.68c1.46-.32 2.25 4 .5 4.13s-1.63-3.88-.5-4.13zM39.3-24.99c.84-.25 1.75 1.38 1.25 2.5s-.5 1.25-1.13 1.5-1.37-3.62-.12-4zM45.17-16.61c1 1 1.5 3.25-.5 2.37s.5-2.37.5-2.37zM34.8-16.24c.58-.96 2 1.13 1.5 1.88s-3.25 1-1.5-1.88zM28.55-18.61c1.48.9.5 2.5-1.25 2.12s-1-3.5 1.25-2.12zM19.8-15.61c1.48-.37 1.75 1.75.5 2.37s-1.5-2.12-.5-2.37zM13.43-14.36c1.26-.21 1.12 3.5-.63 2.62s-.13-2.5.63-2.62zM19.55-23.36c.54-.92 2-.13 1.13 1.37s-2 .13-1.13-1.37zM30.8-39.11c.54-.92 2-.13 1.13 1.37s-2 .13-1.13-1.37zM64.55-70.11c.54-.93 2-.13 1.13 1.37s-2 .13-1.13-1.37zM25.93-26.24c1.35 0 .75 3.5-.5 3.25s-.13-3.25.5-3.25zM64.55-14.74c2.06-.51 2.25 3.13.63 3.88-1.63.75-1.63-3.63-.63-3.88zM57.05-19.43c1.35-.55 2.75 1 1.38 2.38s-3.5-1.5-1.38-2.38zM50.8-22.11c1.58.23.88 2.87-.25 3.37s-3.13-3.87.25-3.37zM65.55-23.11c.92-1.02 2.38 2.87.88 3.12s-2-1.87-.88-3.12zM60.67-27.86c1.29-.4 1.5 2.12.63 3.25s-3-2.5-.63-3.25zM52.67-28.86c2.36 1.04.25 3.87-1.25 2.87s.13-3.37 1.25-2.87zM58.42-34.99c1.67 0 1.25 2.38-.12 3.13s-1-3.13.13-3.13zM63.05-43.61c1.7 1 .38 3.62-1.25 3.5s-.25-4.38 1.25-3.5zM44.92-27.49c.88-1.75 1.88-.75 2.13 1.25s-3.38 1.25-2.13-1.25zM49.05-37.24c1.55-.88 2.75 2.38 1.25 2.88s-3-1.88-1.25-2.88zM42.17-37.24c1.94.26 1.5 2.13.25 2.5s-2.12-2.75-.25-2.5zM54.42-43.99c1.54-.57 2.25 2.75.75 3s-1.75-2.62-.75-3zM32.55-26.24c1.36-.72 2.38 2.63 1.13 3.25s-3-2.25-1.13-3.25zM37.3-33.61c1.54-.39 1.5 2.5.38 3s-2.88-2.38-.38-3zM11.18-31.74c.94-1.41 3.12.38 2.12 1.63s-3.38.25-2.13-1.63zM17.43-30.24c1.14-.57 2 1.88.75 2.5s-1.75-2-.75-2.5zM55.42-12.86c1.14-.57 2 1.87.75 2.5s-1.75-2-.75-2.5zM27.55-34.24c1.24-.61 2 2.63.88 3.38s-3.13-2.25-.88-3.38zM9.68-38.74c1-1 1.75 1 .75 2.38s-2.5-.63-.75-2.38zM18.18-38.61c.57-.97 1.62 1.62.75 2.37s-2-.25-.75-2.37zM36.42-43.24c.53-.65 1.5 2.13.38 2.75s-1.38-1.5-.38-2.75zM46.05-43.74c.98-.18 2 2.38.5 2.75s-1.88-2.5-.5-2.75zM61.55-50.36c1.89-.24 1.88 3 .38 3.25s-1.38-3.13-.38-3.25zM57.67-57.36c1.28.18 1.5 3.25-.25 3.12s-.62-3.25.25-3.12zM51.42-49.99c1-.98 2 1.63.75 2.38s-1.62-1.5-.75-2.38zM30.05-46.61c.74-.68 1.63 1.37.63 2.5s-2.13-1.13-.63-2.5zM23.93-43.36c1.47-.98 1.87 2.25 1 2.87s-2.5-1.87-1-2.87zM18.3-47.49c1.17.18 1.5 2 .25 2.75s-1.88-3-.25-2.75zM11.55-46.24c1.03-.72 2 2.75.75 3.5s-2.88-2-.75-3.5zM44.67-49.86c.76-.67 2.38 1.62.63 2.25s-1.63-1.38-.63-2.25zM46.3-57.36c.98-.2 1.75 2 .25 2.37s-1.5-2.12-.25-2.37zM42.3-62.74c1.47-1.32 1 3 .5 2.88s-3.13-.5-.5-2.88zM36.42-60.24c.86-.21 1.25 2.13.25 2.75s-1.25-2.5-.25-2.75zM39.67-52.11c1.62-.32 1.5 1.75.38 2.5s-1.63-2.25-.38-2.5zM33.67-53.36c1.21-.32 1.5 1.37.38 2.25s-2.25-1.75-.38-2.25zM16.68-57.24c1.11.08 1.12 3.13-.25 3.25s-1.63-3.37.25-3.25zM22.8-53.36c1.66-.56 1.5 2.5.25 2.87s-1-2.62-.25-2.87zM29.55-58.61c1.28.15 1.25 3.25-.25 3.5s-1.88-3.75.25-3.5zM22.8-62.74c.98-.77 1.88 2.25.63 3.13s-2.38-1.75-.63-3.13z" style="fill:none;stroke:#000;stroke-width:.4"/></svg>
